!!!COM: Palestrina, Giovanni Perluigi da
!!!OPR: Missa Ecce sacerdos magnus
!!!OTL: Agnus II
**kern	**kern	**kern	**kern	**kern
*Ibass	*Itenor	*Icalto	*Icalto	*Icant
!Bassus	!Tenor	!Altus 2	!Altus 1	!Cantus
*clefF4	*clefGv2	*clefG2	*clefG2	*clefG2
*k[]	*k[]	*k[]	*k[]	*k[]
*G:mix	*G:mix	*G:mix	*G:mix	*G:mix
*M4/2	*M4/2	*M4/2	*M4/2	*M4/2
=1	=1	=1	=1	=1
0r	1r	0g	1r	0r
.	[1c	.	[1e	.
=2	=2	=2	=2	=2
0r	2c]	0g	2e]	0r
.	4B	.	4d	.
.	4A	.	4c	.
.	2B	.	2d	.
.	[2c	.	[2e	.
=3	=3	=3	=3	=3
1r	4c]	0e	4e]	1r
.	4B	.	4d	.
.	4A	.	4c	.
.	4G	.	4B	.
[1c	1A	.	1c	[1ee
=4	=4	=4	=4	=4
2c]	1G	0g	0r	2ee]
4B	.	.	.	4dd
4A	.	.	.	4cc
2B	1r	.	.	2dd
[2c	.	.	.	[2ee
=5	=5	=5	=5	=5
4c]	0r	0a	1r	4ee]
4B	.	.	.	4dd
4A	.	.	.	4cc
4G	.	.	.	4b
1F	.	.	2r	1cc
.	.	.	[2f	.
=6	=6	=6	=6	=6
0C	1r	0g	2f]	1cc
.	.	.	4e	.
.	.	.	4d	.
.	[1c	.	2.e	2r
.	.	.	.	[2ee
.	.	.	4d	.
=7	=7	=7	=7	=7
0r	2c]	0g	2c	2ee]
.	4B	.	2d	4dd
.	4A	.	.	4cc
.	2B	.	2G	2dd
.	[2c	.	4c	[2ee
.	.	.	4d	.
=8	=8	=8	=8	=8
1r	4c]	0r	4e	4ee]
.	4B	.	4f	4dd
.	4A	.	1g	4cc
.	4G	.	.	4b
2r	1A	.	.	2.cc
[2c	.	.	2f#	.
.	.	.	.	4dd
=9	=9	=9	=9	=9
2c]	1G	0r	0g	2ee
4B	.	.	.	4dd
4A	.	.	.	4cc
2B	2G	.	.	2dd
[2c	4c	.	.	[2ee
.	4d	.	.	.
=10	=10	=10	=10	=10
4c]	4e	0r	0c	4ee]
4B	4f	.	.	4dd
4A	1g	.	.	4cc
4G	.	.	.	4b
1A	.	.	.	1cc
.	2f#	.	.	.
=11	=11	=11	=11	=11
0G	1g	0r	1d	1b
.	1d	.	2r	2r
.	.	.	[2g	[2b
=12	=12	=12	=12	=12
1D	1r	0d	2g]	2b]
.	.	.	4f	4a
.	.	.	4e	4g
2r	2r	.	2f#	2a
[2G	[2B	.	[2g	2b
=13	=13	=13	=13	=13
2G]	2B]	0d	2g]	2g
4F	4A	.	1a	2.dd
4E	4G	.	.	.
2F#	2A	.	.	.
.	.	.	.	4cc
[2G	2B	.	2d	4b
.	.	.	.	4a
=14	=14	=14	=14	=14
4G]	0G	0B	1g	1b
4F	.	.	.	.
4E	.	.	.	.
4D	.	.	.	.
1E	.	.	2r	1a
.	.	.	[2g	.
=15	=15	=15	=15	=15
0D	0A	0d	2g]	1r
.	.	.	4f	.
.	.	.	4e	.
.	.	.	2f#	2r
.	.	.	2f#	[2dd
=16	=16	=16	=16	=16
0r	1r	0e	1g	2dd]
.	.	.	.	4cc
.	.	.	.	4b
.	2r	.	1g	2cc
.	[2g	.	.	[2b
=17	=17	=17	=17	=17
1r	2g]	0d	2r	2b]
.	4f	.	2.d	4a
.	4e	.	.	4g
2r	2f#	.	.	2a
.	.	.	4c	.
[2G	2g	.	4B	2b
.	.	.	4A	.
=18	=18	=18	=18	=18
2G]	2G	0d	2B	2g
4F#	2.d	.	1A	2a
4E	.	.	.	.
2F#	.	.	.	2.dd
.	4c	.	.	.
[2G	4B	.	[2B	.
.	4A	.	.	4cc
=19	=19	=19	=19	=19
4G]	0G	0r	4B]	4b
4F	.	.	4c	4a
4E	.	.	2.d	2.b
4D	.	.	.	.
1E	.	.	.	.
.	.	.	8c	4a
.	.	.	8B	.
.	.	.	2c#	[2g
=20	=20	=20	=20	=20
1D	1A	0r	0d	2g]
.	.	.	.	2f#
2.G	1G	.	.	1g
4F	.	.	.	.
=21	=21	=21	=21	=21
2E	2r	0g	2r	0r
2C	2c	.	2e	.
1G	2c	.	2e	.
.	2B	.	2d	.
=22	=22	=22	=22	=22
1C	2c	0g	2e	2r
.	2.e	.	4c	2ee
.	.	.	4d	.
1r	.	.	4e	2ee
.	4d	.	4f	.
.	2B	.	[2g	2dd
=23	=23	=23	=23	=23
0r	1c	0e	4g]	2ee
.	.	.	4f	.
.	.	.	4e	1cc
.	.	.	4d	.
.	1A	.	2c	.
.	.	.	2c	4b
.	.	.	.	4a
=24	=24	=24	=24	=24
2r	2G	0g	2d	2b
2c	2.g	.	2c	2cc
2c	.	.	1G	1dd
.	4f	.	.	.
2B	2d	.	.	.
=25	=25	=25	=25	=25
2c	2e	0a	0r	2r
2.d	1f	.	.	2dd
.	.	.	.	2dd
4c	.	.	.	.
2A	2e	.	.	2cc
=26	=26	=26	=26	=26
2B	2d	0g	0r	2dd
2.c	2c	.	.	2.ee
.	1r	.	.	.
4d	.	.	.	4dd
[2e	.	.	.	2b
=27	=27	=27	=27	=27
4e]	1r	0g	0r	2cc
4d	.	.	.	.
2B	.	.	.	2dd
1c	2r	.	.	1ee
.	2c	.	.	.
=28	=28	=28	=28	=28
1G	2c	0r	2r	1dd
.	2B	.	2g	.
1r	2c	.	2g	2r
.	2d	.	2f	2dd
=29	=29	=29	=29	=29
0r	2e	0r	2g	2dd
.	2.f	.	2.a	2cc
.	.	.	.	2dd
.	4e	.	4g	.
.	2c	.	2e	[2ee
=30	=30	=30	=30	=30
0r	2d	0r	2f	4ee]
.	.	.	.	4dd
.	2G	.	2g	1dd
.	1A	.	2.e	.
.	.	.	.	2cc
.	.	.	4f#	.
=31	=31	=31	=31	=31
0r	1G	1d	4g	2b
.	.	.	4a	.
.	.	.	1g	4a
.	.	.	.	4g
.	1r	1d	.	1a
.	.	.	2f#	.
=32	=32	=32	=32	=32
2r	1G	1B	1g	1g
2G	.	.	.	.
2G	2B	1d	1r	2r
2F	2A	.	.	[2dd
=33	=33	=33	=33	=33
2G	2B	0e	0r	2dd]
2.A	2c	.	.	2.cc
.	2A	.	.	.
4G	.	.	.	4b
2E	[2c	.	.	2g
=34	=34	=34	=34	=34
2F	2c]	1d	1r	2a
2G	2B	.	.	1g
1D	1A	1d	2r	.
.	.	.	[2d	2f#
=35	=35	=35	=35	=35
1G	2G	0r	2d]	1g
.	2d	.	2B	.
1r	2e	.	2c	2r
.	2f	.	2d	[2dd
=36	=36	=36	=36	=36
2r	2.g	0r	1G	2dd]
2G	.	.	.	2b
.	4f	.	.	.
2A	2e	.	1r	2cc
2B	2d	.	.	2dd
=37	=37	=37	=37	=37
1c	2e	1r	2r	2g
.	4d	.	2.g	1cc
.	4c	.	.	.
1G	1d	1g	.	.
.	.	.	4f	.
.	.	.	2d	2b
=38	=38	=38	=38	=38
2C	1c	1g	1e	0cc
1c	.	.	.	.
.	2r	1e	1c	.
2A	2c	.	.	.
=39	=39	=39	=39	=39
2B	2d	1g	0r	2r
2c	2e	.	.	1cc
1F	2.f	1a	.	.
.	.	.	.	2a
.	4e	.	.	.
=40	=40	=40	=40	=40
1G	4d	1g	2r	2.b
.	4c	.	.	.
.	4B	.	1g	.
.	4A	.	.	4cc
1r	2B	1g	.	2dd
.	2c	.	2e	[2ee
=41	=41	=41	=41	=41
0r	2d	0r	2f	4ee]
.	.	.	.	4dd
.	2G	.	2g	1dd
.	1A	.	1e	.
.	.	.	.	2cc#
=42	=42	=42	=42	=42
2r	2.B	0r	2.d	1dd
1G	.	.	.	.
.	4c	.	4c	.
.	2d	.	2B	2r
2E	[2e	.	2c	2g
=43	=43	=43	=43	=43
2F	4e]	0r	2A	2a
.	4d	.	.	.
2G	1d	.	2d	2b
1E	.	.	2e	1g
.	2c	.	[2g	.
=44	=44	=44	=44	=44
1D	2B	1d	2g]	1dd
.	2A	.	2f#	.
2r	1G	1d	1g	2.b
[2G	.	.	.	.
.	.	.	.	4cc
=45	=45	=45	=45	=45
2G]	2r	1B	1g	2dd
2E	2G	.	.	2ee
2F	2A	1d	2r	1dd
2G	2B	.	[2g	.
=46	=46	=46	=46	=46
1C	2.c	1e	2g]	1r
.	.	.	2e	.
.	4B	.	.	.
2.D	1A	1d	2.f	2r
.	.	.	.	[2dd
4E	.	.	4g	.
=47	=47	=47	=47	=47
2F	1r	1d	2a	2dd]
2G	.	.	4g	2b
.	.	.	4f	.
2A	2r	1r	2e	2cc
2D	[2d	.	2f	2dd
=48	=48	=48	=48	=48
1G	2d]	0r	2d	1b
.	2B	.	1g	.
1r	2c	.	.	1a
.	2d	.	2f#	.
=49	=49	=49	=49	=49
2r	2.G	0r	2.g	2.b
1G	.	.	.	.
.	4A	.	8f	4cc
.	.	.	8e	.
.	2B	.	2d	2dd
2E	2c	.	2e	[2cc
=50	=50	=50	=50	=50
2F	2A	0r	1d	2cc]
2G	2.G	.	.	2.b
1E	.	.	1G	.
.	4A	.	.	4a
.	[2B	.	.	[2g
=51	=51	=51	=51	=51
0D	2B]	1d	1r	2g]
.	4A	.	.	4f
.	4G	.	.	4e
.	1A	1d	2r	1f#
.	.	.	[2d	.
=52	=52	=52	=52	=52
2r	[0G	1B	2d]	[0g
1G	.	.	2d	.
.	.	1d	1B	.
2G	.	.	.	.
=53	=53	=53	=53	=53
2E	1G_	0e	1B	1g_
2E	.	.	.	.
1C	1G_	.	1c	1g_
=54	=54	=54	=54	=54
[0G	0G]	[0d	[0B	0g]
=55	=55	=55	=55	=55
0G]	0G	0d]	0B]	0g
==	==	==	==	==
*-	*-	*-	*-	*-
!!!CDT: 1525/^1526/-1594/2/2
!!!OCY: Italia
!!!AGN: Mass (Tenor)
!!!AST: renaissance, vocal
!!!ASW: Antiphon
!!!PWK: Masses, Book I
!!!RNB: Cadence finals: D,C
!!!YOR: Le Opere Complete, v. 1, p. 1
!!!YOO: Rome, Italy: Fratelli Scalera
!!!END: 1992//
!!!EED: John Miller
!!!YEC: Copyright 2000, John Miller
!!!YEN: United States of America
!!!YEM: Rights to all derivative electronic formats reserved.
!!!YEM: Refer to licensing agreement for further details.
!!!YEM: This file must be accompanied by the licensing agreement.
!!!YEM: A copy of the licensing agreement may be found at http://www.music-cog.ohio-state.edu/HumdrumDatabases/Palestrina/license.txt
!!!EMD: converted to Humdrum by Bret Aarden
